X: 91
T: After the Battle of Aughrim
N: page 31
N: heptatonic
S: Bernie Waugh
R: Reel
M: 4/4
L: 1/8
K: Ador
|AG|:\
"Am"E2A2 ABcd|e2d2 c2A2|"Em"B2G2 GFGA|\
BGAG E2D2| "Am"E2A2 A2(3Bcd|e2ed e2ag|
"G"e2d2 "Em"BedB|[1"Am"A4 A2 AG:|[2 "Am"A6 e2|:\
"Am"a2ag e2(3efg|abag "A"e2(3efg|"Am"a2af "Em"g2ge|
"G"dedB "Em"G2A2| "Am"abag e2(3efg|abag e2d2|"Em"B2e2 "G"d2B2|[1"Am"A6 e2:|[2"Am"A6|
